X:449
T:Duke of York (Short Troop)
M:3/4
L:1/8
K:G
|: (3def | g2 d2 d2 | d3 edc | B2 G2 G2 | G3 BAG | 
F2 A2 A2 | G2 B2 d2 | d2 c2 B2 | A3 def | 
g2 d2 d2 | d3 edc | B2 G2 G2 | G4 d2 | 
e2 ge ge | d2 Bd Bd | c2 A2 F2 |1 G4 :|2 G6 | 
|: F2 A2 A2 | G2 B2 B2 | A2 c2 c2 | B3 dBG | 
F2 AF AF | G2 BG BG | A2 cA cA | B4 (3def | 
g2 d2 d2 | d3 edc | B2 G2 G2 | G4 d2 | 
ed ef ge | fg af gd | c2 A2 F2 |1 G6 :|2 G4 || 
|: z2 | B2 d2 d2 | ^d2 e2 e2 | A2 c2 c2 | ^c2 d2 d2 | 
G4 FA | G2 B2 d2 | gd gd BG | d6 | 
B2 d2 d2 | ^d2 e2 e2 | A2 c2 c2 | ^c2 d2 d2 | 
gf gf e^d | ed cB AG | ce dB cA | G4 :| 

